X:1
T:Crown Flugelhorn Duet
T:Crown Flugelhorn Duet
%%score 1 2
L:1/8
Q:1/4=64
M:4/4
K:Bb
V:1 bass nm="Euphonium" snm="Euph."
V:2 bass nm="Euphonium" snm="Euph."
V:1
 F,(3G,/F,/E,/ F,2- F,3 F, | B,C/4B,/4A,/4B,/4 (3A,B,A, G,/G,F,/ F,2- | F,3 B, DE/D/ CD/C/ | %3
 E/F/E/D/ E2- EGFE |"^rit." E3 D C4 |[Q:1/4=64] DCCB, B,3 F, | %6
 (3:2:4DCC/B,/ B,4- B,3/4A,/B,/4A,/4B,/4 |[Q:1/4=68] G,4 z E, F,2 | F,3 D,/G,/ F,4 | z2 B,E E3 D | %10
"^rit." C/D/4C/4B,/A,/ B,/A,/G,/F,/ E,/4D,/4E,/4F,/4G,/4F,/4G,/4A,/4 (3:2:9B,/4A,/4B,/4C/4DD/4C/4B,/4A,/4 | %11
!>(! B,4 A,4!>)! |] %12
V:2
 z8 | z8 | z2 z F, B,C/B,/ A,B,/A,/ | B,4- B,DCB, | F,/E,/ F,3- F,3 F, | B,F,F,D, D,/F,/B,/D/ E2 | %6
 (3:2:4FEE/D/ D4- D3/4C/D/4C/4D/4 | B,4 z G,B,E | ED D4- (3DB,G | G4- G3 F |!>(! F8-!>)! | F8 |] %12

